X: 37826
T: Sonny's Delight
R: jig
M: 6/8
K: Edorian
Bge dBG|A2A BGD|E2F Ged|Bfg e2d|
Bge dBG|~A3 BGD|E2F Ged|BAF E3|
~e3 dBG|~A3 BGD|E2F Ged|Bfg e2d|
Bge dBG|~A3 BGD|E2F Ged|BAF E3||
|:eBB gfe|fdd baf|eBB efg|(3fgaf e2f|
~g3 ~f3|edB AFD|E2F Ged|BAF E3:|

